material/.icons/material/android-studio.svg

<svg xmlns="http://www.w3.org/2000/svg" viewBox="0 0 24 24"><path d="M11 2h2v2h.5A1.5 1.5 0 0115 5.5V9l-.44.44 1.64 2.84C17.31 11.19 18 9.68 18 8h2c0 2.42-1.07 4.59-2.77 6.06l3.14 5.44.13 2.22-1.87-1.22-3.07-5.33c-1.06.53-2.28.83-3.56.83-1.28 0-2.5-.3-3.56-.83L5.37 20.5 3.5 21.72l.13-2.22L9.44 9.44 9 9V5.5A1.5 1.5 0 0110.5 4h.5V2M9.44 13.43c.78.37 1.65.57 2.56.57.91 0 1.78-.2 2.56-.57L13.1 10.9h-.01c-.62.6-1.56.6-2.18 0h-.01l-1.46 2.53M12 6a1 1 0 00-1 1 1 1 0 001 1 1 1 0 001-1 1 1 0 00-1-1z"/></svg>

<?xml version="1.0" encoding="UTF-8"?><!DOCTYPE svg PUBLIC "-//W3C//DTD SVG 1.1//EN" "http://www.w3.org/Graphics/SVG/1.1/DTD/svg11.dtd"><svg xmlns="http://www.w3.org/2000/svg" xmlns:xlink="http://www.w3.org/1999/xlink" version="1.1" id="mdi-android-studio" width="24" height="24" viewBox="0 0 24 24"><path d="M11,2H13V4H13.5A1.5,1.5 0 0,1 15,5.5V9L14.56,9.44L16.2,12.28C17.31,11.19 18,9.68 18,8H20C20,10.42 18.93,12.59 17.23,14.06L20.37,19.5L20.5,21.72L18.63,20.5L15.56,15.17C14.5,15.7 13.28,16 12,16C10.72,16 9.5,15.7 8.44,15.17L5.37,20.5L3.5,21.72L3.63,19.5L9.44,9.44L9,9V5.5A1.5,1.5 0 0,1 10.5,4H11V2M9.44,13.43C10.22,13.8 11.09,14 12,14C12.91,14 13.78,13.8 14.56,13.43L13.1,10.9H13.09C12.47,11.5 11.53,11.5 10.91,10.9H10.9L9.44,13.43M12,6A1,1 0 0,0 11,7A1,1 0 0,0 12,8A1,1 0 0,0 13,7A1,1 0 0,0 12,6Z" /></svg>
